X: 4
T: Redwing #1 (harmony)
M: C|
Z: Transcribed to abc by Mary Lou Knack
R: square
K: D
E4|: F4 (F2A2)| d4- d2A2| B2(d2 g2d2)| [F4-d4-] [F2d2]A2|    (B2A2) G2B2| (A2G2) F2A2|1 ^G2G2 (A2B2)| A4 (=G2E2):|                           [2 ^G2G2 (=G2E2)| F4 |]
f2e2| d4 d4| d2g2 (a2g2)| f4 d4-| d2d2 d2d2|    c4 G4-| G2c2 (d2c2)| d4 A4-| A4 f2e2|
d4 d4| d2g2 (a2g2)| f4 d4-| d2d2 d2d2|    c4 G4-| G2(B2 A2G2)| F8-| F4 |]

